Yaru++/emotes/16/face-kiss.svg

<svg height="16" width="16" xmlns="http://www.w3.org/2000/svg"><g fill="#fdc92b" transform="matrix(1.1428571 0 0 1.1428571 -1.142852 -1.142857)"><path d="m8 1a7 7 0 1 0 0 14 7 7 0 0 0 0-14zm-2.469 4c.735 0 1.469.225 1.469 1.092-2.56-.604-2.418 1.688-3 .22-.32-.807.797-1.312 1.531-1.312zm4.938 0c.734 0 1.704.461 1.531 1.313-.317 1.556-.528-.958-3-.221 0-.867.734-1.092 1.469-1.092zm-3.469 3c.41-.01.75.134 1.031.344.282-.21.652-.357 1.063-.344.631.02.906.76.906 1.187 0 .775.475.766 1 .829-.634.15-.987 1.224-.984 1.765.005.972-.93 1.256-2.016 1.25-1.085-.004-1.987-.251-1.984-1.234 0-.408-.353-1.59-1.032-1.766.68-.093 1.016-.25 1.016-.86 0-.808.529-1.16 1-1.171z"/><path d="m9 10.274c-.17.08-.32.16-.322.272-.018.27-.374.481-.672.48s-.594-.21-.594-.48c0-.112-.111-.19-.272-.272.53-.395 1.253-.338 1.86 0z"/></g><path d="m6.8571479 7.9999999c-.2691429.0062857-.553893.1105536-.7723214.328125-.2184286.2175715-.3705358.5494464-.3705358 1.0111607 0 .3485714-.097036.5667679-.2901785.7120534-.193143.145286-.4819643.216947-.8705358.27009.388.100571.6816072.487339.8794643.908482s.2991072.876232.2991072 1.109375c-.00171.561714.255125.913428.6674107 1.125.4122857.211571.9804464.283428 1.6004464.285714.6205714.0034 1.198964-.0755 1.620536-.294642.421571-.219144.685893-.578501.683035-1.133929-.0017-.309143.09918-.770768.290179-1.17634.191-.405571.472536-.755803.834821-.841518-.3-.036-.586161-.05027-.796875-.16741-.210714-.117143-.345982-.3361611-.345982-.7790182 0-.244-.07905-.5773928-.247768-.8526787-.168714-.2752857-.427375-.4930356-.787946-.5044642-.4697143-.0148571-.892.1528571-1.2142857.3928571-.3211429-.24-.71-.4042857-1.1785714-.3928571z" fill="#f22c42" stroke-width="1.142857"/><g fill="#fdc92b"><path d="m9 10.274c-.17.08-.32.16-.322.272-.018.27-.374.481-.672.48s-.594-.21-.594-.48c0-.112-.111-.19-.272-.272.53-.395 1.253-.338 1.86 0z" transform="matrix(1.1428571 0 0 1.1428571 -1.142852 -1.142857)"/><g stroke-width="1.142857" transform="translate(-21.694915 .677966)"><path d="m26.873491 3.3220338c-.831084 0-2.086814.5680629-1.754464 1.4754464.22676-.5680141 1.114987-.9040178 1.754464-.9040178.636747 0 1.269632.1486888 1.540179.6517857.04755.00979.08911.012926.138393.024554 0-.9908572-.838572-1.2477679-1.678572-1.2477683zm5.642858 0c-.84 0-1.678572.2569107-1.678572 1.2477679.04973-.014825.09249-.020913.140625-.033482.272855-.496962.904431-.6428571 1.537947-.6428571.685108 0 1.539083.3563527 1.725446 1.015625.0083-.03644.01612-.045684.02455-.087054.197714-.9737143-.911143-1.5-1.75-1.5zm-10.805804 3.7142857c-.0034.09576-.01563.1891261-.01563.2857143 0 4.4182782 3.581719 8.0000002 8 8.0000002s8-3.581722 8-8.0000002c0-.096588-.01223-.1899543-.01563-.2857143-.151894 4.2846305-3.662682 7.7142855-7.984375 7.7142855s-7.832481-3.429655-7.984375-7.7142855z" fill="#000" opacity=".2"/><path d="m29.69492-.6779662c-4.418281 0-8 3.5817221-8 8 0 .096588.01223.1899543.01563.2857143.151894-4.2846301 3.662682-7.7142857 7.984375-7.7142857s7.832481 3.4296556 7.984375 7.7142857c.0034-.09576.01563-.1891261.01563-.2857143 0-4.4182779-3.581719-8-8-8zm2.087054 5.6607143c-.238577.00474-.509834.048308-.803572.125-.08893.1619767-.140625.3613436-.140625.6049107 2.825143-.8422857 3.066286 2.0305179 3.428572.2522321.03624-.1784661.01727-.3364238-.02455-.4843749-.305018 1.3341546-.567765-.5353812-2.459821-.4977679zm-4.189733.040179c-1.938031.016-1.88675 1.8385358-2.46875.3705358-.0034-.00855-.0014-.016067-.0045-.024554-.0707.1770984-.08246.3767732.0045.5959821.665143 1.6777143.502858-.9425178 3.428572-.2522321 0-.2397561-.05203-.4353905-.138393-.5959821-.305298-.062831-.581878-.095728-.821429-.09375z" fill="#fff" opacity=".3"/></g></g></svg>

<?xml version="1.0" encoding="UTF-8" standalone="no"?>
<svg
   xmlns:dc="http://purl.org/dc/elements/1.1/"
   xmlns:cc="http://creativecommons.org/ns#"
   xmlns:rdf="http://www.w3.org/1999/02/22-rdf-syntax-ns#"
   xmlns:svg="http://www.w3.org/2000/svg"
   xmlns="http://www.w3.org/2000/svg"
   xmlns:sodipodi="http://sodipodi.sourceforge.net/DTD/sodipodi-0.dtd"
   xmlns:inkscape="http://www.inkscape.org/namespaces/inkscape"
   height="16"
   width="16"
   version="1.1"
   id="svg8"
   sodipodi:docname="face-kiss.svg"
   inkscape:version="0.92.4 (5da689c313, 2019-01-14)">
  <metadata
     id="metadata14">
    <rdf:RDF>
      <cc:Work
         rdf:about="">
        <dc:format>image/svg+xml</dc:format>
        <dc:type
           rdf:resource="http://purl.org/dc/dcmitype/StillImage" />
      </cc:Work>
    </rdf:RDF>
  </metadata>
  <defs
     id="defs12" />
  <sodipodi:namedview
     pagecolor="#ffffff"
     bordercolor="#666666"
     borderopacity="1"
     objecttolerance="10"
     gridtolerance="10"
     guidetolerance="10"
     inkscape:pageopacity="0"
     inkscape:pageshadow="2"
     inkscape:window-width="1920"
     inkscape:window-height="1016"
     id="namedview10"
     showgrid="false"
     inkscape:zoom="14.75"
     inkscape:cx="-4.8813559"
     inkscape:cy="8"
     inkscape:window-x="0"
     inkscape:window-y="27"
     inkscape:window-maximized="1"
     inkscape:current-layer="g853" />
  <g
     id="g6"
     style="fill:#fdc92b;fill-opacity:1"
     transform="matrix(1.1428571,0,0,1.1428571,-1.1428521,-1.1428572)">
    <path
       d="M 8,1 A 7,7 0 1 0 8,15 7,7 0 0 0 8,1 Z M 5.531,5 C 6.266,5 7,5.225 7,6.092 4.44,5.488 4.582,7.78 4,6.312 3.68,5.505 4.797,5 5.531,5 Z m 4.938,0 C 11.203,5 12.173,5.461 12,6.313 11.683,7.869 11.472,5.355 9,6.092 9,5.225 9.734,5 10.469,5 Z M 7,8 C 7.41,7.99 7.75,8.134 8.031,8.344 8.313,8.134 8.683,7.987 9.094,8 9.725,8.02 10,8.76 10,9.187 c 0,0.775 0.475,0.766 1,0.829 -0.634,0.15 -0.987,1.224 -0.984,1.765 C 10.021,12.753 9.086,13.037 8,13.031 6.915,13.027 6.013,12.78 6.016,11.797 6.016,11.389 5.663,10.207 4.984,10.031 5.664,9.938 6,9.781 6,9.171 6,8.363 6.529,8.011 7,8 Z"
       id="path2"
       style="fill:#fdc92b;fill-opacity:1"
       inkscape:connector-curvature="0" />
    <path
       d="m 9,10.274 c -0.17,0.08 -0.32,0.16 -0.322,0.272 -0.018,0.27 -0.374,0.481 -0.672,0.48 -0.298,-10e-4 -0.594,-0.21 -0.594,-0.48 0,-0.112 -0.111,-0.19 -0.272,-0.272 0.53,-0.395 1.253,-0.338 1.86,0 z"
       id="path4"
       style="fill:#fdc92b;fill-opacity:1"
       inkscape:connector-curvature="0" />
  </g>
  <path
     style="opacity:1;fill:#f22c42;fill-opacity:1;stroke-width:1.14285719"
     d="M 6.8571479,7.9999999 C 6.588005,8.0062856 6.3032549,8.1105535 6.0848265,8.3281249 5.8663979,8.5456964 5.7142907,8.8775713 5.7142907,9.3392856 c 0,0.3485714 -0.097036,0.5667679 -0.2901785,0.7120534 -0.193143,0.145286 -0.4819643,0.216947 -0.8705358,0.27009 0.388,0.100571 0.6816072,0.487339 0.8794643,0.908482 0.1978571,0.421143 0.2991072,0.876232 0.2991072,1.109375 -0.00171,0.561714 0.255125,0.913428 0.6674107,1.125 0.4122857,0.211571 0.9804464,0.283428 1.6004464,0.285714 0.6205714,0.0034 1.198964,-0.0755 1.620536,-0.294642 0.421571,-0.219144 0.685893,-0.578501 0.683035,-1.133929 -0.0017,-0.309143 0.09918,-0.770768 0.290179,-1.17634 0.191,-0.405571 0.472536,-0.755803 0.834821,-0.841518 -0.3,-0.036 -0.586161,-0.05027 -0.796875,-0.16741 -0.210714,-0.117143 -0.345982,-0.3361611 -0.345982,-0.7790182 0,-0.244 -0.07905,-0.5773928 -0.247768,-0.8526787 C 9.869237,8.2291784 9.610576,8.0114285 9.250005,7.9999999 8.7802907,7.9851428 8.358005,8.152857 8.0357193,8.392857 c -0.3211429,-0.24 -0.71,-0.4042857 -1.1785714,-0.3928571 z"
     id="path847"
     inkscape:connector-curvature="0" />
  <g
     style="fill:#fdc92b;fill-opacity:1"
     id="g844"
     transform="matrix(1.1428571,0,0,1.1428571,-1.1428521,-1.1428572)">
    <path
       style="fill:#fdc92b;fill-opacity:1"
       id="path842"
       d="m 9,10.274 c -0.17,0.08 -0.32,0.16 -0.322,0.272 -0.018,0.27 -0.374,0.481 -0.672,0.48 -0.298,-10e-4 -0.594,-0.21 -0.594,-0.48 0,-0.112 -0.111,-0.19 -0.272,-0.272 0.53,-0.395 1.253,-0.338 1.86,0 z"
       inkscape:connector-curvature="0" />
  </g>
  <g
     style="fill:#fdc92b;fill-opacity:1"
     id="g853"
     transform="translate(-21.694915,0.6779661)">
    <path
       style="opacity:0.2;fill:#000000;fill-opacity:1;stroke-width:1.14285719"
       d="m 26.873491,3.3220338 c -0.831084,0 -2.086814,0.5680629 -1.754464,1.4754464 0.22676,-0.5680141 1.114987,-0.9040178 1.754464,-0.9040178 0.636747,0 1.269632,0.1486888 1.540179,0.6517857 0.04755,0.00979 0.08911,0.012926 0.138393,0.024554 0,-0.9908572 -0.838572,-1.2477679 -1.678572,-1.2477683 z m 5.642858,0 c -0.84,0 -1.678572,0.2569107 -1.678572,1.2477679 0.04973,-0.014825 0.09249,-0.020913 0.140625,-0.033482 0.272855,-0.496962 0.904431,-0.6428571 1.537947,-0.6428571 0.685108,0 1.539083,0.3563527 1.725446,1.015625 0.0083,-0.03644 0.01612,-0.045684 0.02455,-0.087054 0.197714,-0.9737143 -0.911143,-1.5 -1.75,-1.5 z M 21.710545,7.0363195 c -0.0034,0.09576 -0.01563,0.1891261 -0.01563,0.2857143 0,4.4182782 3.581719,8.0000002 8,8.0000002 4.418281,0 8,-3.581722 8,-8.0000002 0,-0.096588 -0.01223,-0.1899543 -0.01563,-0.2857143 -0.151894,4.2846305 -3.662682,7.7142855 -7.984375,7.7142855 -4.321693,0 -7.832481,-3.429655 -7.984375,-7.7142855 z"
       id="path849"
       inkscape:connector-curvature="0" />
    <path
       style="opacity:0.3;fill:#ffffff;fill-opacity:1;stroke-width:1.14285719"
       d="m 29.69492,-0.6779662 c -4.418281,0 -8,3.5817221 -8,8 0,0.096588 0.01223,0.1899543 0.01563,0.2857143 0.151894,-4.2846301 3.662682,-7.7142857 7.984375,-7.7142857 4.321693,0 7.832481,3.4296556 7.984375,7.7142857 0.0034,-0.09576 0.01563,-0.1891261 0.01563,-0.2857143 0,-4.4182779 -3.581719,-8 -8,-8 z m 2.087054,5.6607143 c -0.238577,0.00474 -0.509834,0.048308 -0.803572,0.125 -0.08893,0.1619767 -0.140625,0.3613436 -0.140625,0.6049107 2.825143,-0.8422857 3.066286,2.0305179 3.428572,0.2522321 0.03624,-0.1784661 0.01727,-0.3364238 -0.02455,-0.4843749 -0.305018,1.3341546 -0.567765,-0.5353812 -2.459821,-0.4977679 z m -4.189733,0.040179 c -1.938031,0.016 -1.88675,1.8385358 -2.46875,0.3705358 -0.0034,-0.00855 -0.0014,-0.016067 -0.0045,-0.024554 -0.0707,0.1770984 -0.08246,0.3767732 0.0045,0.5959821 0.665143,1.6777143 0.502858,-0.9425178 3.428572,-0.2522321 0,-0.2397561 -0.05203,-0.4353905 -0.138393,-0.5959821 -0.305298,-0.062831 -0.581878,-0.095728 -0.821429,-0.09375 z"
       id="path857"
       inkscape:connector-curvature="0" />
  </g>
</svg>
